X:1
T:Todlen Hame. TWC.050
T:Todlen Hame. TWC.050
T:Old Scotch
C:Old Scotch
L:1/8
Q:3/8=120
M:6/8
K:G
V:1 treble 
V:1
"^Allegretto" Eee e2 g | deg dBG | Eee efg |1 dBG A2 E :|2 dBG A2 G |: ABd A2 G | ABd G3 | %7
 ABd e2 g | dBG A2 G :| %9

